status/22/notification-network-wireless-medium.svg

<?xml version="1.0" encoding="UTF-8" standalone="no"?>
<!-- Created with Inkscape (http://www.inkscape.org/) -->

<svg
   xmlns:svg="http://www.w3.org/2000/svg"
   xmlns="http://www.w3.org/2000/svg"
   version="1.0"
   width="22"
   height="22"
   id="svg2">
  <defs
     id="defs4" />
  <g
     id="layer1">
    <path
       d="M 13.14692,16.709046 C 13.05267,16.790337 10.972401,19 10.972401,19 c 0,0 -2.0604596,-2.228336 -2.1377668,-2.290954 0.1381547,-0.103794 0.7020277,-0.511967 2.1422588,-0.506146 1.417157,0.0057 2.062088,0.405537 2.170027,0.506146 z"
       id="path3375"
       style="opacity:0.98000004;fill:#4479be;fill-opacity:1;fill-rule:evenodd;stroke:none;overflow:visible" />
    <path
       d="m 1.199123,8.413796 c 0,0 3.103883,-3.43078 9.781551,-3.43078 6.644841,0 9.820203,3.436603 9.820203,3.436603"
       id="path2513"
       style="opacity:0.4;fill:none;stroke:#9c9c9c;stroke-width:1.75;stroke-linecap:butt;stroke-linejoin:miter;stroke-miterlimit:4;stroke-opacity:1;stroke-dasharray:none;overflow:visible" />
    <path
       d="m 4.056611,11.452688 c 0,0 2.235372,-2.422385 6.924063,-2.3362 4.727583,0.0869 6.924062,2.375106 6.924062,2.375106"
       id="path2511"
       style="opacity:0.4;fill:none;stroke:#9c9c9c;stroke-width:1.75;stroke-linecap:butt;stroke-linejoin:miter;stroke-miterlimit:4;stroke-opacity:1;stroke-dasharray:none;overflow:visible" />
    <path
       d="m 6.7707897,14.449448 c 0,0 1.0185042,-1.291002 4.1389773,-1.323908 3.081571,-0.0325 4.260671,1.323908 4.260671,1.323908"
       id="path3209"
       style="fill:none;stroke:#4479be;stroke-width:1.70000005;stroke-linecap:butt;stroke-linejoin:miter;stroke-miterlimit:4;stroke-opacity:1;stroke-dasharray:none;overflow:visible" />
  </g>
</svg>

<?xml version="1.0" encoding="UTF-8" standalone="no"?>
<!-- Created with Inkscape (http://www.inkscape.org/) -->
<svg
   xmlns:dc="http://purl.org/dc/elements/1.1/"
   xmlns:cc="http://creativecommons.org/ns#"
   xmlns:rdf="http://www.w3.org/1999/02/22-rdf-syntax-ns#"
   xmlns:svg="http://www.w3.org/2000/svg"
   xmlns="http://www.w3.org/2000/svg"
   xmlns:sodipodi="http://sodipodi.sourceforge.net/DTD/sodipodi-0.dtd"
   xmlns:inkscape="http://www.inkscape.org/namespaces/inkscape"
   width="22"
   height="22"
   id="svg2"
   sodipodi:version="0.32"
   inkscape:version="0.46"
   version="1.0"
   sodipodi:docname="notification-network-wireless-medium.svg"
   inkscape:output_extension="org.inkscape.output.svg.inkscape">
  <sodipodi:namedview
     id="base"
     pagecolor="#ffffff"
     bordercolor="#666666"
     borderopacity="1.0"
     gridtolerance="10000"
     guidetolerance="10"
     objecttolerance="10"
     inkscape:pageopacity="0.0"
     inkscape:pageshadow="2"
     inkscape:zoom="26.409091"
     inkscape:cx="3.3511184"
     inkscape:cy="11"
     inkscape:document-units="px"
     inkscape:current-layer="layer1"
     showgrid="false"
     inkscape:window-width="1440"
     inkscape:window-height="794"
     inkscape:window-x="0"
     inkscape:window-y="24" />
  <defs
     id="defs4" />
  <metadata
     id="metadata7">
    <rdf:RDF>
      <cc:Work
         rdf:about="">
        <dc:format>image/svg+xml</dc:format>
        <dc:type
           rdf:resource="http://purl.org/dc/dcmitype/StillImage" />
      </cc:Work>
    </rdf:RDF>
  </metadata>
  <g
     inkscape:label="Layer 1"
     inkscape:groupmode="layer"
     id="layer1">
    <path
       style="opacity:0.98000003999999996;fill:#4479be;fill-opacity:1;fill-rule:evenodd;stroke:none;stroke-width:5.33333349000000023;stroke-linecap:round;stroke-linejoin:miter;stroke-miterlimit:4;stroke-dasharray:none;stroke-opacity:1;overflow:visible"
       d="M 13.14692,16.709046 C 13.05267,16.790337 10.972401,19 10.972401,19 C 10.972401,19 8.9119414,16.771664 8.8346342,16.709046 C 8.9727889,16.605252 9.5366619,16.197079 10.976893,16.2029 C 12.39405,16.208629 13.038981,16.608437 13.14692,16.709046 z"
       id="path3375"
       sodipodi:nodetypes="ccczc" />
    <path
       style="fill:none;fill-rule:evenodd;stroke:#9c9c9c;stroke-width:1.75000000000000000;stroke-linecap:butt;stroke-linejoin:miter;stroke-miterlimit:4;stroke-dasharray:none;stroke-opacity:1;overflow:visible;opacity:0.4"
       d="M 1.199123,8.413796 C 1.199123,8.413796 4.303006,4.983016 10.980674,4.983016 C 17.625515,4.983016 20.800877,8.419619 20.800877,8.419619"
       id="path2513" />
    <path
       style="fill:none;fill-rule:evenodd;stroke:#9c9c9c;stroke-width:1.75000000000000000;stroke-linecap:butt;stroke-linejoin:miter;stroke-miterlimit:4;stroke-dasharray:none;stroke-opacity:1;overflow:visible;opacity:0.4"
       d="M 4.056611,11.452688 C 4.056611,11.452688 6.291983,9.030303 10.980674,9.116488 C 15.708257,9.203388 17.904736,11.491594 17.904736,11.491594"
       id="path2511" />
    <path
       style="fill:none;fill-rule:evenodd;stroke:#4479be;stroke-width:1.70000005000000010;stroke-linecap:butt;stroke-linejoin:miter;stroke-miterlimit:4;stroke-dasharray:none;stroke-opacity:1;overflow:visible"
       d="M 6.7707897,14.449448 C 6.7707897,14.449448 7.7892939,13.158446 10.909767,13.12554 C 13.991338,13.093044 15.170438,14.449448 15.170438,14.449448"
       id="path3209"
       sodipodi:nodetypes="csc" />
  </g>
</svg>
